_inc/images/systems/logos/auto-compilation.svg

<svg viewBox="0 0 200 40" xmlns="http://www.w3.org/2000/svg">
    <path d="M19.187 21.922h-1.793c.023-.255.086-.454.049-.636-.059-.317-.175-.624-.274-.932-.046-.139-.192-.294-.159-.4.057-.189.195-.368.341-.506.116-.11.291-.159.463-.242-.665-.242-.705-.288-.883-1.082-.11.216-.172.437-.314.59-.136.145-.348.218-.533.324.367.168.639.446.708.886-.02.01-.047.036-.063.03-.655-.202-1.131-.073-1.518.416-.436.553-.52 1.373-.119 1.926.189.26.152.452.019.671-.376.619-.764 1.23-1.157 1.865-.545-.308-1.061-.423-1.607-.232-.552.196-.89.596-1.102 1.188-1.22-.569-2.02-1.502-2.596-2.699.433-.463.628-1.022.605-1.653a2.887 2.887 0 0 0-.579-1.661c-.568-.754-1.273-1.187-2.262-.87a.37.37 0 0 1-.258-.033c-.235-.119-.46-.254-.738-.41.14-.35.268-.704.417-1.048.774-1.803 1.769-3.464 3.192-4.83.479-.462 1.039-.86 1.607-1.21.82-.51 1.68-.466 2.528-.006.909.496 1.65 1.187 2.304 1.974 1.853 2.22 2.994 4.776 3.56 7.598.059.304.098.604.162.982ZM11.9 19.104a3.377 3.377 0 0 0 3.357-3.368 3.377 3.377 0 0 0-3.386-3.373 3.374 3.374 0 0 0-3.358 3.363 3.376 3.376 0 0 0 3.387 3.378Z" style="fill:#ccc"/>
    <path d="M8.143 28.914c-1.24-.702-2.256-1.604-2.984-2.815a4.73 4.73 0 0 1-.694-2.683c.056-1.422.284-2.808.711-4.223.189.099.354.189.519.278-.556 1.135-.357 2.153.331 3.119a.519.519 0 0 1 .079.35c-.089.572-.37.986-1.108 1.062.725.324 1.049.85 1.231 1.525.169-.691.486-1.247 1.247-1.455-.708-.08-1.098-.447-1.194-1.184.509.406 1.035.644 1.666.542.368.728.801 1.386 1.374 1.944a5.41 5.41 0 0 0 1.663 1.132.64.64 0 0 1 .377.36c.264.589.734.93 1.38.99.218.019.36.102.496.26.413.49.919.87 1.574 1.168-1.164.503-2.316.672-3.54.582-.164-.734-.582-1.26-1.296-1.528-.718-.261-1.3-.082-1.832.576Zm-1.35-2.388c.887.03 1.115.718 1.39 1.359.138-.946.138-.946.976-1.405-.738-.143-1.059-.656-1.254-1.33-.093.701-.456 1.138-1.112 1.376Zm12.43-3.844c.261 1.518-.112 2.822-1.002 3.999a7.753 7.753 0 0 1-2.156 1.965.73.73 0 0 1-.477.089c-.708-.149-1.283-.529-1.799-1.141.096-.066.188-.112.261-.186.483-.479.651-1.054.443-1.702-.076-.238-.013-.378.112-.566.444-.668.858-1.36 1.294-2.034.06-.093.178-.162.288-.212.106-.05.258-.026.337-.096.324-.291.668-.158 1.032-.129.549.047 1.108.013 1.667.013Zm-1.508 1.598c-.526.33-1.048.519-1.614.036.367.702.106 1.294-.294 1.935.869-.466.869-.466 1.792-.165-.426-.85-.426-.85.116-1.806Zm1.72-11.798c-.936.053-.857.893-1.122 1.406-.102-.334-.162-.698-.32-1.012-.179-.348-.562-.404-.914-.427.302-.205.652-.367.9-.629.245-.258.388-.612.609-.982.059.688.182 1.304.847 1.644ZM4.822 17.874c-.565-.302-1.095-.573-1.756-.298.493-.688.079-1.168-.305-1.674.612.417 1.201.873 1.932.172-.34.642-.234 1.22.129 1.8Zm1.505-7.985c.076.559.314.989.8 1.27-.238.126-.496.209-.671.374-.172.162-.258.413-.381.628-.016-.255-.002-.513-.052-.754-.063-.294-.331-.387-.596-.459.196-.14.424-.246.57-.418.152-.178.224-.422.33-.641Zm14.748 6.803c-.622-.664-.738-.704-1.432-.4.397-.499.208-.946.016-1.422.447.367.936.48 1.582.334-.503.513-.398.992-.166 1.488Zm-16.95-4.074c-.268.314-.708.489-.576 1.018-.437-.274-.437-.274-1.181-.162.288-.386.457-.787.413-1.3.374.404.83.486 1.344.444Zm5.156 3.069c.552-.278 1.101-.562 1.66-.827a.688.688 0 0 0 .384-.42c.165-.44.347-.876.556-1.396.201.493.386.904.535 1.33.089.261.245.41.489.522.533.248 1.056.523 1.668.83-.586.15-1.076.298-1.574.391-.332.063-.494.209-.576.536a11.682 11.682 0 0 1-.569 1.66c-.149-.479-.341-.953-.44-1.445-.099-.5-.347-.738-.847-.807-.426-.06-.843-.202-1.263-.305-.007-.02-.017-.042-.023-.069Z" style="fill:#ccc"/>
    <path d="m35.571 24.291-.48 5.04c-1.28.52-2.9.78-4.86.78-2.52 0-4.325-.49-5.415-1.47-1.09-.98-1.635-2.49-1.635-4.53 0-.86.14-2.13.42-3.81.6-3.44 1.635-5.94 3.105-7.5 1.47-1.56 3.795-2.34 6.975-2.34.74 0 1.585.075 2.535.225.95.15 1.645.335 2.085.555l-1.68 4.59c-1.18-.28-2.285-.42-3.315-.42-1.03 0-1.765.1-2.205.3-.44.2-.71.6-.81 1.2l-1.38 7.86c.72.16 1.46.24 2.22.24 1.62 0 3.1-.24 4.44-.72Zm9.57-7.11-1.38 7.8h2.37c.78 0 1.36-.095 1.74-.285.38-.19.63-.625.75-1.305l1.38-7.8h-2.4c-.76 0-1.33.095-1.71.285-.38.19-.63.625-.75 1.305Zm3.45-6.72c2.54 0 4.35.495 5.43 1.485 1.08.99 1.62 2.515 1.62 4.575s-.325 4.215-.975 6.465c-.65 2.25-1.68 4-3.09 5.25s-3.47 1.875-6.18 1.875c-2.71 0-4.605-.495-5.685-1.485-1.08-.99-1.62-2.515-1.62-4.575 0-.98.14-2.275.42-3.885.28-1.61.65-3 1.11-4.17.46-1.17 1.08-2.185 1.86-3.045 1.5-1.66 3.87-2.49 7.11-2.49Zm13.38 19.2h-5.94l4.38-18.75h7.44l.54 9.54h.21l3.9-9.54h7.44l-2.22 18.75h-5.97l1.26-9.09h-.21l-3.75 9.09h-4.35l-.63-9.09h-.15Zm29.13-4.53h-3.72l-.78 4.53h-5.7l3.3-18.75h9c3.4 0 5.1 1.58 5.1 4.74 0 1.5-.21 2.855-.63 4.065-.42 1.21-.885 2.17-1.395 2.88s-1.21 1.31-2.1 1.8c-.89.49-1.915.735-3.075.735Zm-2.07-9.42-.81 4.62h1.32c.68 0 1.195-.075 1.545-.225.35-.15.575-.495.675-1.035.26-1.48.39-2.29.39-2.43 0-.38-.15-.63-.45-.75-.3-.12-.75-.18-1.35-.18Zm8.82 13.95 3.3-18.75h5.7l-3.3 18.75Zm20.64 0h-11.4l3.3-18.75h5.7l-2.46 13.95h5.7Zm4.14 0h-6l7.89-18.75h8.82l1.32 18.75h-6.03l-.12-2.97h-4.71Zm5.13-12.99-2.1 5.25h2.4v-5.25Zm22.86-.96h-4.14l-2.43 13.95h-5.7l2.43-13.95h-4.11l.87-4.8h13.95Zm-.27 13.95 3.3-18.75h5.7l-3.3 18.75Zm16.71-12.48-1.38 7.8h2.37c.78 0 1.36-.095 1.74-.285.38-.19.63-.625.75-1.305l1.38-7.8h-2.4c-.76 0-1.33.095-1.71.285-.38.19-.63.625-.75 1.305Zm3.45-6.72c2.54 0 4.35.495 5.43 1.485 1.08.99 1.62 2.515 1.62 4.575s-.325 4.215-.975 6.465c-.65 2.25-1.68 4-3.09 5.25s-3.47 1.875-6.18 1.875c-2.71 0-4.605-.495-5.685-1.485-1.08-.99-1.62-2.515-1.62-4.575 0-.98.14-2.275.42-3.885.28-1.61.65-3 1.11-4.17.46-1.17 1.08-2.185 1.86-3.045 1.5-1.66 3.87-2.49 7.11-2.49Zm18.45 19.2-3.06-6.66c-.08-.14-.12-.335-.12-.585 0-.25.02-.535.06-.855h-.24l-1.41 8.1h-5.7l3.3-18.75h5.37l3.06 6.66c.06.14.09.335.09.585 0 .25-.02.535-.06.855h.24l1.44-8.1h5.7l-3.3 18.75Z" style="fill:#fff;white-space:pre"/>
</svg>

<?xml version="1.0" encoding="utf-8"?>
<svg version="1.1" id="Warstwa_1" x="0px" y="0px" viewBox="0 0 200 40" xmlns="http://www.w3.org/2000/svg">
  <path d="M 19.187 21.922 C 18.568 21.922 17.996 21.922 17.394 21.922 C 17.417 21.667 17.48 21.468 17.443 21.286 C 17.384 20.969 17.268 20.662 17.169 20.354 C 17.123 20.215 16.977 20.06 17.01 19.954 C 17.067 19.765 17.205 19.586 17.351 19.448 C 17.467 19.338 17.642 19.289 17.814 19.206 C 17.149 18.964 17.109 18.918 16.931 18.124 C 16.821 18.34 16.759 18.561 16.617 18.714 C 16.481 18.859 16.269 18.932 16.084 19.038 C 16.451 19.206 16.723 19.484 16.792 19.924 C 16.772 19.934 16.745 19.96 16.729 19.954 C 16.074 19.752 15.598 19.881 15.211 20.37 C 14.775 20.923 14.691 21.743 15.092 22.296 C 15.281 22.556 15.244 22.748 15.111 22.967 C 14.735 23.586 14.347 24.197 13.954 24.832 C 13.409 24.524 12.893 24.409 12.347 24.6 C 11.795 24.796 11.457 25.196 11.245 25.788 C 10.025 25.219 9.225 24.286 8.649 23.089 C 9.082 22.626 9.277 22.067 9.254 21.436 C 9.231 20.827 9.043 20.262 8.675 19.775 C 8.107 19.021 7.402 18.588 6.413 18.905 C 6.337 18.928 6.228 18.912 6.155 18.872 C 5.92 18.753 5.695 18.618 5.417 18.462 C 5.557 18.112 5.685 17.758 5.834 17.414 C 6.608 15.611 7.603 13.95 9.026 12.584 C 9.505 12.122 10.065 11.724 10.633 11.374 C 11.453 10.864 12.313 10.908 13.161 11.368 C 14.07 11.864 14.811 12.555 15.465 13.342 C 17.318 15.562 18.459 18.118 19.025 20.94 C 19.084 21.244 19.123 21.544 19.187 21.922 Z M 11.9 19.104 C 13.755 19.09 15.254 17.589 15.257 15.736 C 15.261 13.874 13.729 12.35 11.871 12.363 C 10.015 12.376 8.517 13.874 8.513 15.726 C 8.507 17.592 10.038 19.117 11.9 19.104 Z" style="fill: rgb(204, 204, 204);"/>
  <path d="M 8.143 28.914 C 6.903 28.212 5.887 27.31 5.159 26.099 C 4.667 25.276 4.425 24.392 4.465 23.416 C 4.521 21.994 4.749 20.608 5.176 19.193 C 5.365 19.292 5.53 19.382 5.695 19.471 C 5.139 20.606 5.338 21.624 6.026 22.59 C 6.092 22.682 6.122 22.828 6.105 22.94 C 6.016 23.512 5.735 23.926 4.997 24.002 C 5.722 24.326 6.046 24.852 6.228 25.527 C 6.397 24.836 6.714 24.28 7.475 24.072 C 6.767 23.992 6.377 23.625 6.281 22.888 C 6.79 23.294 7.316 23.532 7.947 23.43 C 8.315 24.158 8.748 24.816 9.321 25.374 C 9.81 25.851 10.355 26.238 10.984 26.506 C 11.163 26.582 11.279 26.678 11.361 26.866 C 11.625 27.455 12.095 27.796 12.741 27.856 C 12.959 27.875 13.101 27.958 13.237 28.116 C 13.65 28.606 14.156 28.986 14.811 29.284 C 13.647 29.787 12.495 29.956 11.271 29.866 C 11.107 29.132 10.689 28.606 9.975 28.338 C 9.257 28.077 8.675 28.256 8.143 28.914 Z M 6.793 26.526 C 7.68 26.556 7.908 27.244 8.183 27.885 C 8.321 26.939 8.321 26.939 9.159 26.48 C 8.421 26.337 8.1 25.824 7.905 25.15 C 7.812 25.851 7.449 26.288 6.793 26.526 Z" style="fill: rgb(204, 204, 204);"/>
  <path d="M 19.223 22.682 C 19.484 24.2 19.111 25.504 18.221 26.681 C 17.622 27.472 16.907 28.133 16.065 28.646 C 15.935 28.725 15.737 28.765 15.588 28.735 C 14.88 28.586 14.305 28.206 13.789 27.594 C 13.885 27.528 13.977 27.482 14.05 27.408 C 14.533 26.929 14.701 26.354 14.493 25.706 C 14.417 25.468 14.48 25.328 14.605 25.14 C 15.049 24.472 15.463 23.78 15.899 23.106 C 15.959 23.013 16.077 22.944 16.187 22.894 C 16.293 22.844 16.445 22.868 16.524 22.798 C 16.848 22.507 17.192 22.64 17.556 22.669 C 18.105 22.716 18.664 22.682 19.223 22.682 Z M 17.715 24.28 C 17.189 24.61 16.667 24.799 16.101 24.316 C 16.468 25.018 16.207 25.61 15.807 26.251 C 16.676 25.785 16.676 25.785 17.599 26.086 C 17.173 25.236 17.173 25.236 17.715 24.28 Z" style="fill: rgb(204, 204, 204);"/>
  <path d="M 19.435 12.482 C 18.499 12.535 18.578 13.375 18.313 13.888 C 18.211 13.554 18.151 13.19 17.993 12.876 C 17.814 12.528 17.431 12.472 17.079 12.449 C 17.381 12.244 17.731 12.082 17.979 11.82 C 18.224 11.562 18.367 11.208 18.588 10.838 C 18.647 11.526 18.77 12.142 19.435 12.482 Z" style="fill: rgb(204, 204, 204);"/>
  <path d="M 4.822 17.874 C 4.257 17.572 3.727 17.301 3.066 17.576 C 3.559 16.888 3.145 16.408 2.761 15.902 C 3.373 16.319 3.962 16.775 4.693 16.074 C 4.353 16.716 4.459 17.294 4.822 17.874 Z" style="fill: rgb(204, 204, 204);"/>
  <path d="M 6.327 9.889 C 6.403 10.448 6.641 10.878 7.127 11.159 C 6.889 11.285 6.631 11.368 6.456 11.533 C 6.284 11.695 6.198 11.946 6.075 12.161 C 6.059 11.906 6.073 11.648 6.023 11.407 C 5.96 11.113 5.692 11.02 5.427 10.948 C 5.623 10.808 5.851 10.702 5.997 10.53 C 6.149 10.352 6.221 10.108 6.327 9.889 Z" style="fill: rgb(204, 204, 204);"/>
  <path d="M 21.075 16.692 C 20.453 16.028 20.337 15.988 19.643 16.292 C 20.04 15.793 19.851 15.346 19.659 14.87 C 20.106 15.237 20.595 15.35 21.241 15.204 C 20.738 15.717 20.843 16.196 21.075 16.692 Z" style="fill: rgb(204, 204, 204);"/>
  <path d="M 4.125 12.618 C 3.857 12.932 3.417 13.107 3.549 13.636 C 3.112 13.362 3.112 13.362 2.368 13.474 C 2.656 13.088 2.825 12.687 2.781 12.174 C 3.155 12.578 3.611 12.66 4.125 12.618 Z" style="fill: rgb(204, 204, 204);"/>
  <path d="M 9.281 15.687 C 9.833 15.409 10.382 15.125 10.941 14.86 C 11.136 14.768 11.252 14.642 11.325 14.44 C 11.49 14 11.672 13.564 11.881 13.044 C 12.082 13.537 12.267 13.948 12.416 14.374 C 12.505 14.635 12.661 14.784 12.905 14.896 C 13.438 15.144 13.961 15.419 14.573 15.726 C 13.987 15.876 13.497 16.024 12.999 16.117 C 12.667 16.18 12.505 16.326 12.423 16.653 C 12.281 17.212 12.089 17.754 11.854 18.313 C 11.705 17.834 11.513 17.36 11.414 16.868 C 11.315 16.368 11.067 16.13 10.567 16.061 C 10.141 16.001 9.724 15.859 9.304 15.756 C 9.297 15.736 9.287 15.714 9.281 15.687 Z" style="fill: rgb(204, 204, 204);"/>
  <path d="M 35.571 24.291 L 35.091 29.331 C 33.811 29.851 32.191 30.111 30.231 30.111 C 27.711 30.111 25.906 29.621 24.816 28.641 C 23.726 27.661 23.181 26.151 23.181 24.111 C 23.181 23.251 23.321 21.981 23.601 20.301 C 24.201 16.861 25.236 14.361 26.706 12.801 C 28.176 11.241 30.501 10.461 33.681 10.461 C 34.421 10.461 35.266 10.536 36.216 10.686 C 37.166 10.836 37.861 11.021 38.301 11.241 L 36.621 15.831 C 35.441 15.551 34.336 15.411 33.306 15.411 C 32.276 15.411 31.541 15.511 31.101 15.711 C 30.661 15.911 30.391 16.311 30.291 16.911 L 28.911 24.771 C 29.631 24.931 30.371 25.011 31.131 25.011 C 32.751 25.011 34.231 24.771 35.571 24.291 Z M 45.141 17.181 L 43.761 24.981 L 46.131 24.981 C 46.911 24.981 47.491 24.886 47.871 24.696 C 48.251 24.506 48.501 24.071 48.621 23.391 L 50.001 15.591 L 47.601 15.591 C 46.841 15.591 46.271 15.686 45.891 15.876 C 45.511 16.066 45.261 16.501 45.141 17.181 Z M 48.591 10.461 C 51.131 10.461 52.941 10.956 54.021 11.946 C 55.101 12.936 55.641 14.461 55.641 16.521 C 55.641 18.581 55.316 20.736 54.666 22.986 C 54.016 25.236 52.986 26.986 51.576 28.236 C 50.166 29.486 48.106 30.111 45.396 30.111 C 42.686 30.111 40.791 29.616 39.711 28.626 C 38.631 27.636 38.091 26.111 38.091 24.051 C 38.091 23.071 38.231 21.776 38.511 20.166 C 38.791 18.556 39.161 17.166 39.621 15.996 C 40.081 14.826 40.701 13.811 41.481 12.951 C 42.981 11.291 45.351 10.461 48.591 10.461 Z M 61.971 29.661 L 56.031 29.661 L 60.411 10.911 L 67.851 10.911 L 68.391 20.451 L 68.601 20.451 L 72.501 10.911 L 79.941 10.911 L 77.721 29.661 L 71.751 29.661 L 73.011 20.571 L 72.801 20.571 L 69.051 29.661 L 64.701 29.661 L 64.071 20.571 L 63.921 20.571 Z M 91.101 25.131 L 87.381 25.131 L 86.601 29.661 L 80.901 29.661 L 84.201 10.911 L 93.201 10.911 C 96.601 10.911 98.301 12.491 98.301 15.651 C 98.301 17.151 98.091 18.506 97.671 19.716 C 97.251 20.926 96.786 21.886 96.276 22.596 C 95.766 23.306 95.066 23.906 94.176 24.396 C 93.286 24.886 92.261 25.131 91.101 25.131 Z M 89.031 15.711 L 88.221 20.331 L 89.541 20.331 C 90.221 20.331 90.736 20.256 91.086 20.106 C 91.436 19.956 91.661 19.611 91.761 19.071 C 92.021 17.591 92.151 16.781 92.151 16.641 C 92.151 16.261 92.001 16.011 91.701 15.891 C 91.401 15.771 90.951 15.711 90.351 15.711 Z M 97.851 29.661 L 101.151 10.911 L 106.851 10.911 L 103.551 29.661 Z M 118.491 29.661 L 107.091 29.661 L 110.391 10.911 L 116.091 10.911 L 113.631 24.861 L 119.331 24.861 Z M 122.631 29.661 L 116.631 29.661 L 124.521 10.911 L 133.341 10.911 L 134.661 29.661 L 128.631 29.661 L 128.511 26.691 L 123.801 26.691 Z M 127.761 16.671 L 125.661 21.921 L 128.061 21.921 L 128.061 16.671 Z M 150.621 15.711 L 146.481 15.711 L 144.051 29.661 L 138.351 29.661 L 140.781 15.711 L 136.671 15.711 L 137.541 10.911 L 151.491 10.911 Z M 150.351 29.661 L 153.651 10.911 L 159.351 10.911 L 156.051 29.661 Z M 167.061 17.181 L 165.681 24.981 L 168.051 24.981 C 168.831 24.981 169.411 24.886 169.791 24.696 C 170.171 24.506 170.421 24.071 170.541 23.391 L 171.921 15.591 L 169.521 15.591 C 168.761 15.591 168.191 15.686 167.811 15.876 C 167.431 16.066 167.181 16.501 167.061 17.181 Z M 170.511 10.461 C 173.051 10.461 174.861 10.956 175.941 11.946 C 177.021 12.936 177.561 14.461 177.561 16.521 C 177.561 18.581 177.236 20.736 176.586 22.986 C 175.936 25.236 174.906 26.986 173.496 28.236 C 172.086 29.486 170.026 30.111 167.316 30.111 C 164.606 30.111 162.711 29.616 161.631 28.626 C 160.551 27.636 160.011 26.111 160.011 24.051 C 160.011 23.071 160.151 21.776 160.431 20.166 C 160.711 18.556 161.081 17.166 161.541 15.996 C 162.001 14.826 162.621 13.811 163.401 12.951 C 164.901 11.291 167.271 10.461 170.511 10.461 Z M 188.961 29.661 L 185.901 23.001 C 185.821 22.861 185.781 22.666 185.781 22.416 C 185.781 22.166 185.801 21.881 185.841 21.561 L 185.601 21.561 L 184.191 29.661 L 178.491 29.661 L 181.791 10.911 L 187.161 10.911 L 190.221 17.571 C 190.281 17.711 190.311 17.906 190.311 18.156 C 190.311 18.406 190.291 18.691 190.251 19.011 L 190.491 19.011 L 191.931 10.911 L 197.631 10.911 L 194.331 29.661 Z" style="fill: rgb(255, 255, 255); white-space: pre;"/>
</svg>
